!!!OTL: Exultet
!!!SMS: VB 592: Citt&agrave; del Vaticano, Biblioteca Apostolica Vaticana,Vat. Barb. lat. 592
**kern	**silbe
*	*LLatin
*staff6	*staff6
=1-	=1-
*clefGv2	*
*k[]	*
1r	.
=2-	=2-
1r	.
=3-	=3-
1r	.
=4-	=4-
1r	.
=5-	=5-
1r	.
=6-	=6-
1r	.
=7-	=7-
8F	[ET
8G	PRO
8A	TAN]-
8G	-TI
(16F	RE-
16G)	.
8G	-GIS
8F	VIC-
(16F	TO
16G)	.
=8-	=8-
8G	RI
8G	-A
8G	TU-
8F	-BA
8G	IN-
8F	(T)O
(8G	-NET
8A	.
=9-	=9-
16G	.
16A)	.
(16G	.
8F)	.
(16G	SA-
8A)	.
(16G	LU
16A	.
8G)	.
8F	TA
8F	-RIS.
=10-	=10-
(8G	GAU-
8A)	.
8G	DE
8G	-AT
8G	se
8G	tan-
8F	-tis
(16F	tel-
16G)	.
=11-	=11-
8G	-lus
8G	ir-
8G	-ra-
8G	-di-
(8G	-a-
8A)	.
(8A	-tam
8G)	.
=12-	=12-
4F	ful-
(8G	-go-
8A)	.
(8G	-ri-
8F)	.
4F	-bus.
=13-	=13-
8F	et
8G	e-
8A	-ter-
8G	-ni
(8F	re-
8G)	.
8G	-gis
8G	splen-
=14-	=14-
(8G	-do-
8A)	.
(4A	-re
4G)	.
4F	lu-
=15-	=15-
(4G	-stra-
4A	.
4G)	.
4F	-ta
=16-	=16-
8F	to-
8A	-ti-
8G	-us
8G	or-
8G	-bis
8F	se
(8F	sen-
8G)	.
=17-	=17-
8G	-ti-
8G	-at
8G	a-
8F	-mi-
(8G	-sis-
8A)	.
(8G	.
8A)	.
=18-	=18-
8G	.
8F	.
(8G	-se
8A)	.
(8G	ca-
16A	.
16G)	.
16F	-li-
16F	-gi-
8F	-nem.
=19-	=19-
(16G	LE-
16A)	.
8G	TE
8G	-TUR
8G	et
8G	ma-
8G	-ter
8F	ec-
(16F	-cle-
16G)	.
=20-	=20-
16G	-si-
16G	-a
16G	tan-
16F	-ti
(16F	lu-
16G)	.
16G	-mi-
16G	-nis
16G	a-
16G	-dor-
(16G	-na-
16A)	.
(8A	-ta
8G)	.
=21-	=21-
4F	ful-
(8G	-go-
8A)	.
(8G	-ri-
8F)	.
4F	-bus.
=22-	=22-
8F	(et
8A	m)ag-
8G	-nis
(16G	po-
16A)	.
8G	-pu-
8G	-lo-
8F	-rum
(16F	vo-
16G)	.
=23-	=23-
8G	-ci-
8G	-bus
8F	hec
(8G	au-
8A)	.
(8G	.
8A)	.
8G	.
=24-	=24-
8F	.
(8G	-la
8A)	.
(8G	re-
8A	.
8G)	.
8F	-sul-
8F	-tet.
=25-	=25-
1r	.
=26-	=26-
1r	.
=27-	=27-
1r	.
=28-	=28-
1r	.
=29-	=29-
1r	.
=30-	=30-
1r	.
=31-	=31-
1r	.
=32-	=32-
1r	.
=33-	=33-
1r	.
=34-	=34-
1r	.
=35-	=35-
1r	.
=36-	=36-
1r	.
=37-	=37-
1r	.
=38-	=38-
1r	.
=39-	=39-
1r	.
=40-	=40-
1r	.
=41-	=41-
1r	.
=42-	=42-
1r	.
=43-	=43-
1r	.
=44-	=44-
1r	.
=45-	=45-
1r	.
=46-	=46-
1r	.
=47-	=47-
1r	.
=48-	=48-
1r	.
=49-	=49-
1r	.
=50-	=50-
1r	.
=51-	=51-
1r	.
=52-	=52-
1r	.
=53-	=53-
1r	.
=54-	=54-
1r	.
=55-	=55-
1r	.
=56-	=56-
1r	.
=57-	=57-
1r	.
=58-	=58-
1r	.
=59-	=59-
1r	.
=60-	=60-
1r	.
=61-	=61-
1r	.
=62-	=62-
1r	.
=63-	=63-
1r	.
=64-	=64-
1r	.
=65-	=65-
1r	.
=66-	=66-
1r	.
=67-	=67-
1r	.
=68-	=68-
1r	.
=69-	=69-
1r	.
=70-	=70-
1r	.
=71-	=71-
1r	.
=72-	=72-
1r	.
=73-	=73-
1r	.
=74-	=74-
1r	.
=75-	=75-
1r	.
=76-	=76-
1r	.
=77-	=77-
1r	.
=78-	=78-
1r	.
=79-	=79-
1r	.
=80-	=80-
1r	.
=81-	=81-
1r	.
=82-	=82-
1r	.
=83-	=83-
1r	.
=84-	=84-
1r	.
=85-	=85-
1r	.
=86-	=86-
1r	.
=87-	=87-
1r	.
=88-	=88-
1r	.
=89-	=89-
1r	.
=90-	=90-
1r	.
=91-	=91-
1r	.
=92-	=92-
1r	.
=93-	=93-
1r	.
=94-	=94-
(8G	HEC
8A)	.
4G	I-
4G	GI
4F	-(TUR
=95-	=95-
(8F	nox)
8G)	.
8G	est
8G	que
4G	pec-
(8G	(ca
8A)	.
=96-	=96-
(8A	-to-
8G)	.
8F	-rum
(8G	te-
8A)	.
(8G	-ne-
8F)	.
8F	-bras)
=97-	=97-
4F	(co-
4A	lum)
4G	-ne
8G	il-
8G	-lu-
=98-	=98-
8G	-mi-
8G	-na-
8F	-ti-
(16G	-o-
16A)	.
(16G	.
16A)	.
16G	.
16F	.
(8G	-ne
8A)	.
=99-	=99-
(4G	pur-
8A	.
8G)	.
4F	-ga-
4F	-vit
=100-	=100-
(8G	HEC
8A)	.
4G	NOX
(8F	EST
8G)	.
8G	que
8G	ho-
=101-	=101-
8G	-di-
16G	-e
16G	per
8G	u-
8G	-ni-
8G	-ver-
8F	-sum
(16F	mun-
16G)	.
8G	-dum
=102-	=102-
8G	in
(16G	chri-
8A)	.
(16A	-sto
16G)	.
8F	cre-
(16G	-den-
8A	.
8G)	.
8F	-tes
=103-	=103-
8F	a
8A	vi-
8G	-ti-
8G	-is
8G	se-
8G	-cu-
8G	-li
8G	se-
=104-	=104-
8F	-gre-
(16F	-ga-
16G)	.
8G	-tos
8G	et
8G	ca-
8G	-li-
8G	-gi-
(16G	-ne
16A)	.
=105-	=105-
(8A	pec-
8G)	.
8F	-ca-
(8G	-to-
8A	.
8G)	.
4F	-rum
=106-	=106-
4A	red-
(16G	-dit
16A)	.
16G	.
16F	.
(8G	gra-
8A)	.
(8G	-ti-
8F)	.
=107-	=107-
8F	-e.
8G	so-
4F	-ci-
(8G	-at
8A)	.
(8G	.
8A)	.
=108-	=108-
8G	.
8F	.
(8G	sanc-
8A)	.
(8G	-ti-
16A	.
16G)	.
8F	-ta-
8F	-ti.
=109-	=109-
(8G	HEC
8A)	.
8G	NO(X
(8F	E)ST
8G)	.
8G	in
8G	qua
8F	de-
=110-	=110-
(8F	-struc-
8G)	.
8G	-tis
(8G	vin-
8A)	.
(8A	-cu-
8G)	.
8F	-lis
=111-	=111-
(4G	mor-
4A	.
4G)	.
4F	-tis.
=112-	=112-
4A	chri-
8G	-stus
8F	ab
(8F	in-
8G)	.
8G	-fe-
8F	-ris
=113-	=113-
(8G	(vic)-
8A)	.
(8G	.
8A)	.
8G	.
8F	.
(8G	-tor
8A)	.
=114-	=114-
(8G	a-
8A	.
4G)	.
4F	-scen-
4F	-dit.
=115-	=115-
(4G	NI-
4A)	.
4G	-CHIL
(8F	e-
8G)	.
=116-	=116-
4G	-nim
4G	no-
(8G	-bis
8A)	.
(8A	na-
8G)	.
=117-	=117-
4F	-sci
(8G	pro-
8A)	.
(8G	-fu-
8F)	.
4F	-it.
=118-	=118-
4F	ni-
4F	-si
4G	re-
4F	-di-
=119-	=119-
(8G	-mi
8A)	.
(8G	.
8A)	.
8G	.
8F	.
(8G	pro-
8A)	.
=120-	=120-
(8G	-fu-
8A	.
4G)	.
4F	-is-
4F	-(set)
=121-	=121-
(16G	O
16A)	.
8G	VE-
8G	-RE
8G	cir-
8F	-ca
(16F	nos
16G)	.
8G	tu-
8G	-e
=122-	=122-
8G	(pi-
8G	-e-
(8G	-ta-
8A)	.
(8A	-tis)
8G)	.
4F	di-
=123-	=123-
(4G	gn(a
8A)	.
(4G	-ti-
8F)	.
4F	-o.)
=124-	=124-
8A	(o
8G	i-
8G	-ne-
8F	-sti-
(8F	-ma-
8G)	.
8G	-bi-
8G	-lis
=125-	=125-
8G	di-
8G	-lec-
4G	-ti-
(8G	-o)
8A)	.
(8A	ca-
8G)	.
=126-	=126-
4F	-ri-
(8G	-ta-
8A	.
4G)	.
4F	-tis.
=127-	=127-
8F	ut
8A	ser-
8G	-vum
8F	re-
(8F	-di-
8G)	.
8G	-me-
8G	-res.
=128-	=128-
8G	fi-
8F	-li-
(8G	-um
8A)	.
(8G	.
8A)	.
8G	.
8F	.
=129-	=129-
(8G	tra-
8A)	.
(8G	-di-
8A	.
8G)	.
8F	-di-
4F	-(sti.)
=130-	=130-
(8G	O
8A)	.
4G	CER-
4G	-TE
4G	ne-
=131-	=131-
4F	-ces-
(8F	-sa-
8G)	.
8G	-ri-
8G	-um
(8G	a-
8A)	.
=132-	=132-
(8A	-de
8G)	.
8F	pec-
(8G	-ca-
8A	.
8G)	.
4F	-tum
=133-	=133-
8F	quod
8G	chri-
8F	-sti
(8G	mor-
8A)	.
(8G	.
8A)	.
8G	.
=134-	=134-
8F	.
(8G	-te
8A)	.
(8G	de-
8A	.
8G)	.
16F	(le
16F	-tum)
8F	est.
=135-	=135-
(8G	O
16A)	.
(8A	FE-
16G)	.
8F	-LIX
(8G	cul-
8A	.
8G)	.
8F	-pa.
=136-	=136-
8F	que
8A	ta-
8G	-lem
8F	ac
(16F	tan-
16G)	.
8G	-tum
8G	me-
8G	-ru-
=137-	=137-
8F	-it
8G	ha-
4F	-be-
(8G	-re
8A)	.
(8G	.
8A)	.
=138-	=138-
16G	.
16F	.
(16G	re-
16A)	.
(8G	-demp-
16A	.
16G)	.
4F	-to-
4F	-rem.
=139-	=139-
(16G	O
16A)	.
8G	BE-
8G	A
8F	-TA
(16F	nox
16G)	.
8G	que
8G	so-
8G	-la
=140-	=140-
8G	(me-
8G	ru)
8F	-it
(16F	sci-
16G)	.
4G	-re
(8G	tem-
8A)	.
=141-	=141-
(8A	-pus
8G)	.
4F	et
(8G	ho-
16A	.
16G)	.
4F	-ram
=142-	=142-
8F	in
8A	qua
8G	chri-
8G	-stus
8F	(ab)
8G	in-
4F	-fe-
=143-	=143-
(8G	-ris
8A)	.
(8G	.
8A)	.
8G	.
8F	.
(8G	re-
8A)	.
=144-	=144-
(4G	-sur-
8A	.
8G)	.
4F	-re-
4F	-xit.
=145-	=145-
(16G	HEC
16A)	.
8G	NOX
(8G	EST
16A)	.
(8A	(de
16G)	.
8F	qua
(8G	scrip-
8A)	.
=146-	=146-
(8G	-tum
8F)	.
8F	est
8F	et
8A	nox
8G	ut
(16F	di-
16G)	.
8G	-es
=147-	=147-
(8G	il-
16A)	.
(8A	-lu-
16G)	.
8F	-mi-
(16G	-na-
16A)	.
(8G	-bi-
8F)	.
8F	-tur)
=148-	=148-
8F	(et
8A	nox
8G	il-
8G	-lu-
8G	-mi-
8G	-na-
8G	-ti-
8F	-o
=149-	=149-
(16F	me-
16G)	.
8G	-a)
8G	in
8F	de-
(8G	-li-
8A)	.
(16G	.
16A)	.
16G	.
16F	.
=150-	=150-
(8G	-ci-
8A)	.
(8G	-is
8A	.
8G)	.
8F	me-
4F	-is
=151-	=151-
(8G	HU-
8A)	.
8G	-IUS
(8F	i-
8G)	.
8G	-gi-
8G	-tur
8G	sanc-
=152-	=152-
8G	-ti-
8G	-fi-
(8G	-ca-
8A)	.
(8A	-ti-
8G)	.
4F	-o
=153-	=153-
(4G	noc-
4A	.
4G)	.
4F	-tis
=154-	=154-
4A	fu-
(8G	-gat
8A)	.
4G	.
4F	.
=155-	=155-
(8G	sce-
8A)	.
(8G	-le-
8F)	.
4F	-ra.
(16G	cul-
16A	.
8G)	.
=156-	=156-
4F	-pas
(8G	la-
8A	.
4G)	.
4F	-vat.
=157-	=157-
4A	red-
4G	-dit
4G	in-
4G	-no-
=158-	=158-
(8G	-cen-
16A)	.
(8A	-ti-
16G)	.
8F	-am
(8G	lap-
16A	.
16G)	.
8F	-sis.
8A	me-
=159-	=159-
(8A	-stis
8G)	.
8F	le-
(8G	-ti-
8A)	.
(8G	-ti-
8F)	.
8F	-am.
=160-	=160-
4A	fu-
(8G	-gat
8A)	.
8G	.
8F	.
(8G	o-
8A)	.
=161-	=161-
(8G	-di-
8F)	.
4F	-a
4F	con-
(8G	-cor-
8A)	.
=162-	=162-
(8A	-di-
8G)	.
8F	-am
(8G	pa-
8A	.
8G)	.
4F	-rat
=163-	=163-
4F	et
(4G	cur-
4A)	.
(8G	.
8A)	.
=164-	=164-
8G	.
8F	.
(4G	-vat
4A)	.
(8G	im-
8A	.
=165-	=165-
4G)	.
4F	-pe-
4F	-ri-
4F	-a.
=166-	=166-
(8G	IN
8A)	.
4G	HU-
4G	-IUS
4G	i-
=167-	=167-
4G	-gi-
4G	-tur
4G	noc-
4F	-tis
=168-	=168-
(4F	gra-
4G)	.
4G	-ti-
4G	-a
=169-	=169-
8A	su-
8G	-sci-
8G	-pe
8G	sanc-
8G	-te
8G	pa-
8G	-ter
8G	(in-
=170-	=170-
8G	-cen-
8F	-si)
(16F	hu-
16G)	.
8G	-ius
8G	sa-
8G	-cri-
8G	-fi-
8G	-ci-
=171-	=171-
(16G	-um
16A)	.
(16A	ve-
16G)	.
4F	-sper-
(8G	-ti-
16A	.
16G)	.
4F	-num.
=172-	=172-
8F	quod
8A	ti-
8G	-bi
8F	in
16G	hac
16G	ce-
8G	-re-
8G	-i
16G	o-
16G	-bla-
=173-	=173-
8G	-ti-
8G	-o-
8G	-ne
8F	sol-
(16F	-lem-
16G)	.
8G	-ni
8G	per
8G	mi-
=174-	=174-
(16G	-ni-
16A)	.
(16A	-stro-
16G)	.
8F	-rum
(8G	ma-
8A	.
8G)	.
4F	-nus
=175-	=175-
8F	de
8G	o-
8A	-pe-
8G	-ri-
8F	-bus
(16F	a-
16G)	.
8G	-pum
8G	sa-
=176-	=176-
8G	-cro-
8G	-sanc-
8F	-ta
(16G	(red)-
16A)	.
(16G	.
16A)	.
16G	.
16F	.
(8G	-dit
8A)	.
=177-	=177-
(8G	ec-
8A	.
8G)	.
8F	-cle-
4F	-si-
4F	-a.
=178-	=178-
(8G	SED
8A)	.
8G	IAM
8G	co-
8G	-lum-
8F	-ne
(8F	hu-
8G)	.
=179-	=179-
8G	-ius
8G	pre-
(8G	-co-
8A)	.
(8A	-ni-
8G)	.
4F	-a
=180-	=180-
(4G	no-
8A)	.
(4G	-vi-
8F)	.
4F	-mus.
=181-	=181-
8F	quam
8F	in
8G	ho-
8A	-no-
8G	-re
(8F	de-
8G)	.
8G	-i
=182-	=182-
8G	ru-
8G	-ti-
4F	-lans
(8G	ig-
8A)	.
(8G	.
8A)	.
=183-	=183-
8G	.
8F	.
(8G	-nis
8A)	.
(8G	ac-
16A	.
16G)	.
8F	-cen-
8F	-dit.
=184-	=184-
(8G	QUI
8A)	.
4G	LI-
4G	-CET
4G	sit
=185-	=185-
4G	di-
(4G	-vi-
4A)	.
(8A	-sus
8G)	.
=186-	=186-
4F	in
(8G	par-
8A	.
4G)	.
4F	-tes
=187-	=187-
8F	mu-
8G	-tu-
8A	-a-
8G	-ti
8G	ta-
8F	-men
(8F	lu-
8G)	.
=188-	=188-
8G	-mi-
8G	-nis
8G	de-
8F	-tri-
(8G	-men-
8A)	.
(8G	.
8A)	.
=189-	=189-
8G	.
8F	.
(8G	-ta
8A)	.
(8G	non
16A	.
16G)	.
8F	no-
8F	-vit.
=190-	=190-
(8G	A-
8A)	.
4G	-LI-
4G	-TUR
4G	li-
=191-	=191-
(4G	-quan-
4A)	.
(4A	-ti-
4G)	.
=192-	=192-
4F	-bus
(8G	ce-
8A	.
4G)	.
4F	-ris.
=193-	=193-
8F	quam
8F	in
8G	sub-
8A	-stan-
8G	-ti-
8G	-am
16G	pre-
16G	-ti-
16G	-o-
16G	-se
=194-	=194-
16G	hu-
8F	-ius
(16F	lam-
16G)	.
16G	-pa-
8G	-dis
16G	a-
16F	-pes
(16G	ma-
16A)	.
(16G	.
16A)	.
16G	.
16F	.
=195-	=195-
(8G	-ter
8A)	.
(8G	e-
8A	.
8G)	.
8F	-du-
4F	-xit
=196-	=196-
(8G	A-
8A)	.
4G	-PIS
(8F	ce-
8G)	.
4G	-te-
=197-	=197-
4G	-ris
8G	que
8G	sub-
(8G	-iec-
8A)	.
(8A	-ta
8G)	.
=198-	=198-
4F	sunt
(8G	h(o-
8A)	.
(8G	-mi-
8F)	.
4F	-ni)
=199-	=199-
4F	a-
4F	-ni-
4G	man
4F	-ti-
=200-	=200-
(8G	-bus
8A)	.
(8G	.
8A)	.
8G	.
8F	.
(8G	an-
8A)	.
=201-	=201-
(4G	-te-
8A	.
8G)	.
4F	-cel-
4F	-lit.
=202-	=202-
(8G	CUM
8A)	.
8G	SIT
8G	e-
8F	-nim
(8F	mi-
8G)	.
8G	-ni-
=203-	=203-
8G	-ma
8G	cor-
4G	-po-
(8G	-ris
8A)	.
(8A	par-
8G)	.
=204-	=204-
4F	-vi-
(4G	-ta-
8A	.
8G)	.
4F	-te.
=205-	=205-
8F	in-
8A	-gen-
8G	-tes
(16F	a-
16G)	.
8G	-ni-
8G	-mos
8G	an-
8G	-gu-
=206-	=206-
4G	-sto
(8G	ver-
8A)	.
(8A	-sat
8G)	.
4F	in
=207-	=207-
(4G	pec-
8A)	.
(4G	-to-
8F)	.
4F	-re.
=208-	=208-
8A	vi-
8G	-ri-
(8G	-bus
8A)	.
(8A	in-
8G)	.
8F	bec
(8G	cil
=209-	=209-
16A	.
16G)	.
8F	-lis.
8F	sed
(16G	for-
16A)	.
(16G	.
16A)	.
16G	.
16F	.
(8G	-tis
8A)	.
=210-	=210-
(8G	in-
8A	.
8G)	.
8F	-ge-
4F	-ni-
4F	-o.
=211-	=211-
(8G	HEC
8A)	.
4G	ex-
4F	-plo-
(8F	-ra-
8G)	.
=212-	=212-
4G	-ta
(4G	tem-
8A)	.
(4A	-po-
8G)	.
=213-	=213-
4F	-rum
(8G	vi-
8A	.
4G)	.
4F	-ces.
=214-	=214-
8F	cum
8F	ca-
8A	-ni-
8G	-ti-
8G	-em
8G	pru-
8F	-i-
(16F	-no-
16G)	.
=215-	=215-
4G	-sam
4G	hi-
(8G	-ber-
8A)	.
(8A	-na
8G)	.
=216-	=216-
4F	po-
(8G	-su-
8A)	.
(8G	-e-
8F)	.
4F	-rint.
=217-	=217-
8F	et
8F	gla-
8G	-ci-
8A	-a-
8G	-le
(16F	se-
16G)	.
8G	-ni-
8G	-um
=218-	=218-
8G	ver-
8G	-ni
8F	te(m)-
(16F	-po-
16G)	.
8G	-ris
8G	mo-
8G	-de-
(16G	-ra-
16A)	.
=219-	=219-
(16A	-ta
16G)	.
8F	de-
(8G	-ter-
8A)	.
4G	-se-
4F	-rint.
=220-	=220-
8A	sta-
8G	-tim
8G	pro-
8F	-de-
(16F	-un-
&(16G&))	.
8G	-di
8G	ad
8G	la-
=221-	=221-
8G	-bo-
8F	-rem
(8G	cu-
8A)	.
(8G	.
8A)	.
8G	.
8F	.
=222-	=222-
(8G	-ra
8A)	.
(8G	suc-
8A	.
8G)	.
8F	-ce-
4F	-dit.
=223-	=223-
(16G	DI-
16A)	.
8G	SPER
8G	SE
8G	-QUE
8F	per
(8F	a-
8G)	.
8G	-gros.
=224-	=224-
8G	li-
8G	-bra-
8G	-tis
(8G	pau-
8A)	.
(4A	-lu-
8G)	.
=225-	=225-
4F	-lum
(4G	pen-
8A	.
8G)	.
4F	-nis.
=226-	=226-
4A	cru-
4G	-ri-
4G	-bus
4F	su-
=227-	=227-
(8G	-spen-
8A)	.
(8G	.
8A)	.
8G	.
8F	.
(8G	-sis
8A)	.
=228-	=228-
(8G	in-
8A	.
4G)	.
4F	-si-
4F	-dunt.
=229-	=229-
(8G	PAR-
8A)	.
4G	-TIM
(4F	o-
4G)	.
=230-	=230-
4G	-re
(8G	le-
8A)	.
(8A	-gen-
8G)	.
4F	-tes
=231-	=231-
(4G	flo-
8A)	.
(4G	scu
8F)	.
4F	-los.
=232-	=232-
8F	o-
8G	-ne-
8A	-ra-
8G	-te
8G	vic-
8F	-tu-
(8F	-a-
8G)	.
=233-	=233-
8G	-li-
8G	-bus
8G	su-
8F	-is
(8G	ad
8A)	.
(16G	.
16A)	.
16G	.
16F	.
=234-	=234-
(8G	ca-
8A)	.
(8G	-stra
8A	.
8G)	.
8F	re-
8F	-me-
8F	-ant.
=235-	=235-
(8G	I-
8A)	.
4G	BI
4G	-QUE
4G	a-
=236-	=236-
4G	-li-
4G	-e
4G	i-
4G	-ne-
=237-	=237-
4G	-sti-
4G	-ma-
4G	-bi-
4F	-li
=238-	=238-
(8F	ar-
8G)	.
8G	-te
8G	cel-
8G	-lu-
8G	-las
8F	te-
(8F	-na-
=239-	=239-
8G)	.
8G	-ci
(8G	glu-
8A)	.
(8A	-ti-
8G)	.
4F	-no
=240-	=240-
(4G	in-
8A)	.
(4G	stru
8F)	.
4F	-unt.
=241-	=241-
4A	a-
4G	-li-
4G	-e
4F	li-
=242-	=242-
(8F	-quan-
8G)	.
4G	-ti-
(8G	-a
8A)	.
(8A	mel-
8G)	.
=243-	=243-
4F	-la
(8G	sti-
8A	.
4G)	.
4F	-pant.
=244-	=244-
4A	a-
4G	-li-
4F	-e
(8F	ver-
8G)	.
=245-	=245-
4G	-tunt
(4G	flo-
8A)	.
(4A	-res
8G)	.
=246-	=246-
4F	in
(8G	ce-
8A	.
4G)	.
4F	-ram.
=247-	=247-
4A	a-
4G	-li-
4G	-e
4G	o-
=248-	=248-
(4G	-re
8A)	.
(4A	na-
8G)	.
4F	-tos
=249-	=249-
(4G	fin-
4A	.
4G)	.
4F	-gunt.
=250-	=250-
8A	a-
8G	-li-
8G	-e
4G	col-
(8F	-lec-
8G)	.
8G	-tum
=251-	=251-
8G	e
8G	fo-
8G	-li-
8F	-is
(8G	ne-
8A)	.
(16G	.
16A)	.
16G	.
16F	.
=252-	=252-
(8G	-ctar
8A)	.
(8G	in-
8A	.
4G)	.
8F	-clu-
8F	-dunt.
=253-	=253-
(4G	O
4A)	.
4G	VE-
4G	-RE
=254-	=254-
4G	mi-
(4G	-ra-
8A)	.
(4A	-bi-
8G)	.
=255-	=255-
4F	-lis
(8G	a-
8A	.
4G)	.
4F	-pis
=256-	=256-
8A	cu-
8G	-ius
8F	nec
(16F	se-
16G)	.
4G	-xum
(8G	ma-
8A)	.
=257-	=257-
(8A	scu
8G)	.
8F	-li
(8G	vi-
8A)	.
(16G	-o-
16F)	.
8F	-lant.
8A	fe-
=258-	=258-
(8A	-tus
8G)	.
8F	non
(8G	quas-
8A	.
8G)	.
4F	-sa(t).
=259-	=259-
4F	nec
4A	fi-
4G	-li-
4F	-i
=260-	=260-
8G	de-
8F	stru
(8G	-(unt
8A)	.
(8G	.
8A)	.
8G	.
8F	.
=261-	=261-
(8G	ca-
8A)	.
(8G	-sti-
8A	.
8G)	.
8F	-ta-
4F	-tem.)
=262-	=262-
1r	.
=263-	=263-
1r	.
=264-	=264-
1r	.
=265-	=265-
1r	.
=266-	=266-
1r	.
=267-	=267-
1r	.
=268-	=268-
1r	.
=269-	=269-
1r	.
=270-	=270-
1r	.
=271-	=271-
1r	.
=272-	=272-
1r	.
=273-	=273-
1r	.
=274-	=274-
1r	.
=275-	=275-
1r	.
=276-	=276-
1r	.
=277-	=277-
1r	.
=278-	=278-
1r	.
=279-	=279-
1r	.
=280-	=280-
1r	.
=281-	=281-
1r	.
=282-	=282-
1r	.
=283-	=283-
1r	.
=284-	=284-
1r	.
=285-	=285-
1r	.
=286-	=286-
1r	.
=287-	=287-
1r	.
=288-	=288-
1r	.
=289-	=289-
1r	.
=290-	=290-
1r	.
=291-	=291-
1r	.
=292-	=292-
1r	.
=293-	=293-
1r	.
=294-	=294-
1r	.
=295-	=295-
1r	.
=296-	=296-
1r	.
=297-	=297-
1r	.
=298-	=298-
1r	.
=299-	=299-
1r	.
=300-	=300-
1r	.
=301-	=301-
1r	.
=302-	=302-
1r	.
=303-	=303-
1r	.
=304-	=304-
1r	.
=305-	=305-
1r	.
=306-	=306-
1r	.
=307-	=307-
1r	.
=308-	=308-
1r	.
=309-	=309-
1r	.
=310-	=310-
1r	.
=311-	=311-
1r	.
=312-	=312-
1r	.
=313-	=313-
1r	.
=314-	=314-
1r	.
=315-	=315-
1r	.
=316-	=316-
(8G	ME-
8A)	.
8G	MEN
8G	-TO
8G	e-
8G	-ti-
8F	-am
(16F	do-
16G)	.
=317-	=317-
8G	-mi-
8G	-ne
8G	fa-
8G	-mu-
8F	-li
(16F	tu-
16G)	.
16G	-i
8G	im-
16G	-pe-
=318-	=318-
16G	-ra-
8G	-to-
(16G	-ris
16A)	.
(16A	no-
&(8G&))	.
8F	-stri.
(16G	.
16A	.
8G)	.
8F	.
=319-	=319-
8A	Nec
8G	non
8G	et
8G	fa-
8G	-mu-
8F	-li
(8F	tu-
8G)	.
=320-	=320-
8G	-i
4G	co-
8G	-mi-
4G	-tis
(8G	no-
8A)	.
=321-	=321-
(8A	-stri.
&(8G&))	.
8F	.
(8G	.
8A	.
8G)	.
4F	.
=322-	=322-
4F	cum
4A	om-
4G	-ni
4G	e-
=323-	=323-
4G	-xer-
(4G	-ci-
8A)	.
(4A	-tu
8G)	.
=324-	=324-
4F	e-
(8G	-o-
8A	.
4G)	.
4F	-rum.
=325-	=325-
4F	Et
4F	ce-
4A	-le-
4G	-stem
=326-	=326-
(8F	e-
8G)	.
8G	-is
8G	con-
(8G	-ce-
8A)	.
(8A	-de
8G)	.
=327-	=327-
4F	vic-
(8G	-to-
8A)	.
(8G	-ri-
8F)	.
4F	-am.
=328-	=328-
8F	Et
8A	his
8G	qui
8G	ti-
4F	-bi
(8F	of-
8G)	.
=329-	=329-
8G	-fe-
8G	-runt
8G	hoc
4G	sa-
8G	-cri-
(8G	-fi-
8A)	.
=330-	=330-
(8A	-ci-
8G)	.
8F	-um
(8G	lau-
8A	.
8G)	.
4F	-dis
=331-	=331-
4A	pre-
4G	-mi-
4G	-a
4G	e-
=332-	=332-
4F	-ter-
(8G	-na
8A)	.
(8G	.
8A)	.
8G	.
8F	.
=333-	=333-
(8G	lar-
8A)	.
(8G	-gi-
8A	.
8G)	.
8F	-a-
4F	-ris.
=334-	=334-
(8G	PER
4A)	.
8G	do-
4G	-mi-
8G	-num
8G	no-
=335-	=335-
8G	-strum
8G	ie-
8F	-sum
(8F	chri-
8G)	.
8G	-stum
(8G	fi-
8A)	.
=336-	=336-
(8A	-li-
8G)	.
8F	-um
(8G	tu-
8A	.
8G)	.
4F	-um.
=337-	=337-
8F	Qui
8A	te-
8G	-cum
8G	et
8G	cum
8G	spi-
8G	-ri-
8F	-tu
=338-	=338-
(8F	sanc-
8G)	.
8G	-to
8G	vi-
4G	-vit
(8G	et
8A)	.
=339-	=339-
(8A	reg-
8G)	.
8F	-nat
(8G	de-
8A	.
8G)	.
4F	-us.
=340-	=340-
8F	Per
8A	om-
8G	-ni-
8G	-a
8G	se-
8F	-cu-
(8G	-la
8A)	.
=341-	=341-
(8G	.
8A)	.
8G	.
8F	.
(8G	se-
8A)	.
(8G	-cu-
8A	.
=342-	=342-
8G)	.
8F	-lo-
4F	-rum.
4E	[a-
4F	-men.]
=343-	=343-
1r	.
=344-	=344-
1r	.
=345-	=345-
1r	.
=346-	=346-
1r	.
=347-	=347-
1r	.
=348-	=348-
1r	.
=349-	=349-
1r	.
=350-	=350-
1r	.
=351-	=351-
1r	.
=352-	=352-
1r	.
=353-	=353-
1r	.
=354-	=354-
1r	.
=355-	=355-
1r	.
=356-	=356-
1r	.
=357-	=357-
1r	.
=358-	=358-
1r	.
=359-	=359-
1r	.
=360-	=360-
1r	.
=361-	=361-
1r	.
=362-	=362-
1r	.
=363-	=363-
1r	.
=364-	=364-
1r	.
=365-	=365-
1r	.
=366-	=366-
1r	.
=367-	=367-
1r	.
=368-	=368-
1r	.
=369-	=369-
1r	.
=370-	=370-
1r	.
=371-	=371-
1r	.
=372-	=372-
1r	.
=373-	=373-
1r	.
=374-	=374-
1r	.
=375-	=375-
1r	.
=376-	=376-
1r	.
==	==
*-	*-
!!!hum2abc: -p "%%nostems" -M none
!!!ENC: Elsa De Luca
!!!RWG: Rhythms and barlines are for alignment only, not found in source.
!!!YEC: Copyright 2009, Elsa De Luca
!!!title: @{OTL}, @{SMS}
